X:1
T:Willy's Rare
M:3/4
L:1/4
K:E
 B,| E2 E| G3/2- F/2 E| C- E C| B,2 B,| G2 G| A- B c| B3| G2 E| E2 E|\
 G3/2- F/2 E| C/2- E3/2 C| B,2 B,| A2 c| B- G E| F3| E2||
